X:1
T:Kew Gardens, CMD
T:Kew Gardens, CMD
T:Byron Burditt, 1906
T:Public Domain Courtesy of the Cyber Hymnal™
C:Byron Burditt, 1906
Z:Public Domain
Z:Courtesy of the Cyber Hymnal™
%%score ( 1 2 ) ( 3 4 )
L:1/8
Q:1/4=81
M:4/4
K:C
V:1 treble 
V:2 treble 
V:3 bass 
V:4 bass 
V:1
 G/ | c>c BA GG E>E | [EG]>[EG] [FA][FB] [Ec]3 z/ G/ | c>c BA GG [Ec]>[Ge] | %4
 [^Fd]>[Fe] [Fd][FA] [=Fd]3 z/ [FG]/ | [Ec]>[Ec] [Gd]>[Gd] [Ge]>[Fd] [Ec]>[Fd] | %6
 [Ge][Ge] [^Fe]>[Fd] [=Fd]3 z/ [FG]/ | [Ec]>[Ec] [Gd]>[Gd] [Ge]>[Ge] !fermata![Af]>[^F^d] | %8
 [Ge]>[Ge] [Ge][Fd] [Ec]6 |] %9
V:2
 G/ | c>c BA GG E>E | x15/2 G/ | c>c BA GG x2 | x8 | x8 | x8 | x8 | x10 |] %9
V:3
 G,/ | C>C B,A, G,G, E,>E, | [C,G,]>[C,G,] F,[D,F,] [C,G,]3 z/ G,/ | C>C B,A, G,G, [C,G,]>[C,C] | %4
 [D,A,]>[D,C] [D,C][D,C] [G,B,]3 z/ [G,B,]/ | [C,C]>[C,C] [G,B,]>[F,B,] [E,C]>[G,B,] [C,C]>[C,C] | %6
 [C,C][A,,C] [D,A,]>[D,A,] [G,,B,]3 z/ [G,B,]/ | %7
 [C,C]>[C,C] [G,B,]>[G,B,] [G,C]>[C,C] !fermata![F,C]>[_A,C] | [G,C]>[G,C] [G,B,]G, [C,G,]6 |] %9
V:4
 G,/ | C>C B,A, G,G, E,>E, | x2 F, x7/2 G,/ x | C>C B,A, G,G, x2 | x8 | x8 | x8 | x8 | x3 G, x6 |] %9

